X:1
T:Title
%%score { 1 | 2 }
L:1/8
M:3/4
K:D
V:1 treble nm="Grand Piano"
V:2 bass 
V:1
 z2 z2[Q:1/4=100] [FA]2 | [FA]3 [DF] [EG][GB] | [FA]2 F2 D2 | E3 F G[CA] |[M:2/4] [DF]4 | %5
[M:1/4] [FA]2 |[M:3/4] [FA]3 [DF] [EG][GB] | [FA]2 [DF]2 [Fd]2 | [Ec]3 [CEA] [EAc][D^GB] | %9
[M:2/4] [CA]4 |[M:1/4] [GA]2 |[M:3/4] [Fd]3 [Ac] [GB][Gd] | [FA]4 [DF]2 | [EG]3 [DF] [CE][CA] | %14
[M:2/4] [DF]4 |[M:1/4] [FA]2 |[M:3/4] [Fd]3 [Ac] [GB][FA] | [GB][Gd] [DFA]2 [F,D]2 | %18
 [A,DF]3[Q:1/4=89] [A,EG][Q:1/4=77] [G,CE][A,CF][Q:1/4=98][Q:1/4=97][Q:1/4=95][Q:1/4=94][Q:1/4=92][Q:1/4=91][Q:1/4=88][Q:1/4=86][Q:1/4=84][Q:1/4=83][Q:1/4=81][Q:1/4=80][Q:1/4=78] | %19
[M:2/4][K:bass] [F,D]4 |] %20
V:2
 z2 z2 [D,D]2 | [D,D]3 [D,A,] [D,A,][D,D] | [D,D]2 [D,A,D]2 [F,A,]2 | %3
 [G,A,C]3 [F,A,D] [E,A,E][A,,A,] |[M:2/4] [D,A,]4 |[M:1/4] [D,D]2 | %6
[M:3/4] [D,D]3 [D,A,] [D,A,][D,D] | [D,D]2 [D,A,]2 [D,A,]2 | [E,A,]3 E, E,E, |[M:2/4] A,,4 | %10
[M:1/4] A,2 |[M:3/4] [D,A,]3 [D,D] [D,D][D,B,] | [D,D]4 [D,A,]2 | [A,,A,]3 [A,,A,] [A,,A,][A,,A,] | %14
[M:2/4] [D,A,]4 |[M:1/4] [D,A,]2 |[M:3/4] [D,A,]3 [D,A,] [D,D][D,D] | [D,D][D,B,] D,2 D,2 | %18
 A,,3 A,, A,,A,, |[M:2/4] D,4 |] %20

